-----BEGIN PGP SIGNATURE-----

wsDcBAABCgAGBYJqsiMMAAoJEFqCZ+3L9153ztsMAJwU7DbUTobHRtK63G29JVAw
qXxXYxthoCtxRYj/6xw/CC/1/0zIqw9O4ZewOLnMtlH+gEeCExT8K0fdVGH3Mm3g
GJ1wIZ8WrTHVRSFKQAhHm9p1dg/6rWgGCZREYD4MpliIQQzDE007lTyQxZu7CMg3
ef6Vbwiv3dKesqs2PRyitrQnmtTMUoVed2WasWaG0X+qn6lCXVuN+yyYASqGIDTm
Gk48dYg/uPfzYZ6S7n3eg4kAXPm/MmEg2KZNepExyFM3ylHyMqwFg2n7SLCYE2wO
CIHX8ihdwyDBDZ40Ar3B3A4PwBlnkuXs4BhsV7l7QxA3poc+onrkJQ+lM1VKs937
gsPjESnIq6vOA0Ua5ycLu3rPNrYYCCq2wucNaqUdHGfygc+miS26jO4cPAC3ZVIH
fS7iM7z5Rq/zOOU02QBdZmnR2bjKvw485ZRk5ih2cI+qAC10GWL+CjhA/TRfmUVQ
2etJJJg2e+oXgqdAlgMqYDdg7Je6G/jQ2ISSZd1RLQ==
=Yx1U
-----END PGP SIGNATURE-----
