-----BEGIN PGP SIGNATURE-----

wsDcBAABCgAGBYJqs/4mAAoJEFqCZ+3L9153Xv8L/RqvgRznsBN7fZtmvK/1bs2E
Gfra6uObkUx1P/rvpb4KMRHedJzqi+ti4scQh+9zZvC9CKbGmJ7TCJNpPJ8CWQ2c
EaJbv6NiolrDf+Ew+W1uoG6cdf6gapQyYs1/Em6WS1aFBLDEgymv/9GGSpAiuPvr
0E9O9uOx4/vAYsHdG4Ce83APdXmnlEl9WweY7nGkor48vIZMmQV+naOUW+uu3YrP
EUDnV/pPSQsGpL7ejTlh/AwEUmq/eETidyjRvQ9SJKmrAfu56zCAg/De2+FPvWD3
xMDokkf4N9iAk/V9qjFjIXPMBsjmDgB1z1MoWm/GNg2yEg+Uv+yXoHRWrbQvLBVj
Z7fjIpd6T+nBdjdrpgrut2f7YZb0u8jXTEzKv9Vrw4Hsf9bL9GH1rd0OrmOQKIHC
ThLUZYElTG9sP2SXE4+66jXZ54BSL1Odr8Q6fSAf5QBUBUlWcl+bZ3gdxlT1qu8Z
UwF4S6qxJNr+iGsmghyz3LThBwkBySaHGpLgNmE7wg==
=mwT1
-----END PGP SIGNATURE-----
