-----BEGIN PGP SIGNATURE-----

wsDcBAABCgAGBYJqfHn/AAoJEFqCZ+3L9153bycL/jyQBkiRfTy1rkwfsj08wTFZ
zsNLw7LVZcnw/ffB+fD3OVqgHkg1eLA+fFjtveT3YxWUDBj/CyLces3pXX3Ww3c9
UvnMx/7j6KNUUCMgPu2TRG2UZ64t0kmZ0MjDUzKlcXpM5ZziGbyKWgHAwCb+Gatn
WBNjkK/SjgIARRb6g0VF0qkxX8XY9I+59BzSsj5y3aLYzTEgJv7NzmMYsv9Y49QR
e0QaR3mEApwQ5SaBzchGvUbXjIKXzogWgyV1Rwqiyoj6yqxe+wpmLTdziHlA3Ku4
lL828dl3VuBZf/ptYBR9Yzmwggs1yMrW0oik5DvgUclCSee6HpLXnQ8+SqNjrrLW
N1BAPzdQE+zL1/a/clj+nbavMw5Nin+GllnvR4hEd2vKvmY9fX54lXhZfIEgCCzk
dwu1xI8Hzcx08SzHPNdBuR10cGAqZl/JzfP0GIwTgPQS2iqThHDDvOOU/Tjc433x
9Pi8Ong2Kfemjoi86PgtRS6KJFxx0n3KK1fVeCnoOw==
=3az/
-----END PGP SIGNATURE-----
