-----BEGIN PGP SIGNATURE-----

wsDcBAABCgAGBYJqfZ0VAAoJEFqCZ+3L91533/8L/RmDxA0NywocrRCgkhXL3Nuz
W1xpmxZIgy/zEsWSBjP3OjwVdFeQ6mVbYyoqvtPz8XydIeI0CTE8/bset1ozu2Vg
GbcOwIit0BRsdHQza0FCGfTMDBodbGBd9Z56z7LT+SJCxNW+aRJxesy0GvGop3dQ
QGIm+u15ExiE6y/e5BOk1if+dXj3qkqSdmS6P6zd4p5/e0/Lkal+GATPRGKQfMwf
qQt8vYVEKfcLxg4LVwjvwZ57HFf2E+frc3UWhOicSecmUWt5dzAlW3g6bWu0MPDO
pdAFZAfBbhQ3Y4mgsjwWpIwNiDqQrFGyue15mh49WT1HVTev+XzT45JmA/Y92poi
gid2rN/bYcthDY+mendwYmFhp2y1h4kMIO5MPHSFR3EpxQDB/0xNExNR0vk6leIu
ZMFuyQlBJR3XRXFcSoSWCUulO7jjYFtvhQfLJf4KgSBfGZokNRK2laQ1cAv3y719
VHR0e8hApjBLToxLtrt1JOFzBdcgsRlodqksaJHf1A==
=35CK
-----END PGP SIGNATURE-----
