-----BEGIN PGP SIGNATURE-----

wsDcBAABCgAGBYJqfZ0ZAAoJEFqCZ+3L9153Y+QMAIzf45Rrcx6MixcgG11D8fzZ
A9c0GumVhjOxVLeuInNo+xBIUQKBzB1eiAHuWah25jA7THAKBAzyKFFbGSjSKpMV
2P8z8QlVB6CFeugSzdZTNpmJL8j20xVJMpYKzefNde1xch+IsLFDG+GNvccwpYW7
sLeI+Lte0CNnNppwj2iBcYT99mnrd9wtdQwPLh+wm9Ug2yBptq8qlB7/X8sPmBQO
eDON0pU7npUeufcrQJW31d/oNhAGvkmayLoRbq2DTaQJSe34tSW8Ag3AZWPaqhoY
Q77J6dGb+Wl7zxssV6w/4cBgqQnh15Ks0eqoOLFKelf7SZzD71u0uwmunnw7KxOH
nn777d7azgaxVO9No6ZvkV7gFLYkRq9b07EPVnlMwXPXNr63OGUggyyvZAOgVdGV
TrROC/vNRpxG0Kml5rnidSUDmef0MXsvxdXmzoxPMMN1Vq2hnUAnZyKEOZ3txdHh
zYkVVxVmfXwHMkrGnhi63QI5hoGImGT5kzAXD8N2Hg==
=vOtx
-----END PGP SIGNATURE-----
