-----BEGIN PGP SIGNATURE-----

wsDcBAABCgAGBYJqt97jAAoJEFqCZ+3L91535WIL+QF1zRu6sak9zEx8tEk7AgOx
doaMo1tmTxT5SskG7ddXmrIseiX/r0mUuv8i900GetdqzgzzzdnP61j7HD4Myl+e
mwYbmjmmFyWT6bvzaSlVh87+kQrlMyTNMXVi+q7ZXXPMQvo5PJ3GW+0hKuw1R4P3
KUvJr3Kav7FqUdrjBbPLrQVCcTUusrbVgIuDj9Ic/sAmR9nKtYAXyhTv7tMKriaI
BYwrvBfD4JlYDVE7Unmnl0Slegu16hEbp4Gq7nRFxA+J/SKUVOgQh2PdpIhPzEk2
J2aVzWnd2imm1cxGepv7oYM6sVAvCcSwEQ1vz8KFhOiPiy6AFlvJzzb4qA0EtnXg
jkzzgWvbxgjIZ6jzG3HUSBS4fDnn1mVP6bpeVcKaL3TFkmGjpGQahav+u4fXe1M7
QL9mjurfKZ5sqqrbZC1yPS/iQToAWf19gw2hjv9mVOmh1RYmaW1hjikcRSaSQ2U0
C+KEDxk1FtEiD23/AGwCLFegVvJ5BvJTz+6K31a09g==
=cxg/
-----END PGP SIGNATURE-----
