-----BEGIN PGP SIGNATURE-----

wsDcBAABCgAGBYJqsuR8AAoJEFqCZ+3L9153hKkL/jQUpRXUYcEn7hrsIxGznhpN
eBS8BuVHb9WoBAlME9Fa8ScwbhTqdzpvNJu4QpNBzV5h1nSm2SKvMtrQFGhju0Al
qVDuz1LZUn3TphL0ybb1jzS5CPtd8jMgLClJwBlskhaRASZ2vG28SJPCuxGri7OZ
nWNvFCq3jhJedKjEJocuVilihnIwSfwmo+RvpPcCbGqzTAvpe0WQyaOpwhjGGXaM
Z56MXvqrElnkSAHa00Ke3YNfdsTsI74MSpbH+/UXpMdpQs5UiHeIrMuJcohoYTYa
OPVUBrTiRT4kkwLQoSfw7U6Fdm4ft+kfKqo9kfmPHx/c3bTqaCQk0Y/8xLt5APK0
hJ5rgP3Cejaki8VQsUDkKs2WYjkMpsMHth9TRNd12eAeXoNxesmz4QMzf+dNeMxD
9ueYQhnJQiCcT6F6vHQzE1FswbBkBPfhCj2XrPEAl7eWJYbtIXKdhWbRxelER90I
umh0gIAHXa49e3icVKRRMTKvyl6nZIcFc0aKxSfMCA==
=NL3X
-----END PGP SIGNATURE-----
