-----BEGIN PGP SIGNATURE-----

wsDcBAABCgAGBYJqsDThAAoJEFqCZ+3L9153FdIL/3Xl0dXPm4gYi28pQiXNNbds
Npl8e4zVyDjgj+5TMM5N40LOqFeS1/q+cLgj5qCFaYaPLsKD/ptJUkQODuuVPwuP
8ZPNAtXOUECMKpJaPOcUTCrliUdzrfmWoergyRHLrayrQjcWQylNnaEAGNU+EZbu
BwIsOSIy+gqLzHlDKQQSPt5pbKAn7IVk2VGNjcCmi8qDURuzoZ4AGdZVgqYR0AMt
Y51V2hO6bv7qJP8+SGZprWy3V18Fc8AQvHLpdstHbFcwQa8z5uNhLw2teOzdw1gN
E4cnaiSL5f1PcniyTqhdA9tJM/PZTx8e6YymGf/SBRbBKlGm7iTVDWxlDOOxNSxa
cfE5glO0u8QobHbM4NnhIjrYuX4TA58x3gAo+pkKBy0zHD2kLHw8E8nFXwwFB+yk
iKFd/YGLGVTMyNJQrhKJQQQA18T6MVPTWHqVoBxOxno0QR6jXFPuAwb2eGVouHpo
WaCQVCMfnxTB/s3BYsq4P57J2k4FmUp0q6k0gz0+jw==
=NycQ
-----END PGP SIGNATURE-----
